X:1
T:I've Worked Eight Hours this Day
M:4/4
L:1/16
K:G
 DD| G2G2 FG AF G2G2 FG AF| GG G2 FG AF GF GA GF|E-D| A2A2 ^GAB-G A2A2 ^GAB-G|\
 A3 B A2G2 F2d2 d2 z2| z4 z2 D2G2 G2 FG AF| G2G2 FG AF G2 GG FG AF|\
 GF GA GF ED AA A2 ^GA BG| A2A2 ^GA BG A2B2 AA B2| A2d2 d2|
M:4/4
 D2D2| G4 G4 A4 A4| G8 z4 A3 B| c4 c4 B4 B4| A8 z4 B3 c| d4 B4 A4 B3 c|\
 d4 B4 A4 D4| G2G2 G4 G2B2 d2B2| A8 G4||

